svg/azure-network-interface.svg

<?xml version="1.0" encoding="UTF-8"?>
<svg xmlns="http://www.w3.org/2000/svg" xmlns:xlink="http://www.w3.org/1999/xlink" width="32" height="32" viewBox="0 0 32 32">
<defs>
<linearGradient id="linear-pattern-0" gradientUnits="userSpaceOnUse" x1="9.01" y1="16.5" x2="9.01" y2="1.5" gradientTransform="matrix(1.777778, 0.00266842, -0.00266842, 1.777778, 0, 0)">
<stop offset="0" stop-color="rgb(36.862746%, 58.823532%, 25.490198%)" stop-opacity="1"/>
<stop offset="0.34" stop-color="rgb(41.960785%, 66.666669%, 25.882354%)" stop-opacity="1"/>
<stop offset="0.67" stop-color="rgb(45.09804%, 71.764708%, 26.274511%)" stop-opacity="1"/>
<stop offset="1" stop-color="rgb(46.27451%, 73.333335%, 26.274511%)" stop-opacity="1"/>
</linearGradient>
</defs>
<path fill-rule="nonzero" fill="rgb(100%, 79.215688%, 0%)" fill-opacity="1" d="M 28.25 5.171875 L 30.507812 5.171875 C 30.839844 5.171875 31.109375 5.445312 31.109375 5.777344 L 31.109375 12 C 31.109375 12.332031 30.839844 12.605469 30.507812 12.605469 L 28.25 12.605469 Z M 28.25 16 L 30.507812 16 C 30.839844 16 31.109375 16.269531 31.109375 16.605469 L 31.109375 27.023438 C 31.109375 27.355469 30.839844 27.625 30.507812 27.625 L 28.25 27.625 Z M 28.25 16 "/>
<path fill-rule="nonzero" fill="url(#linear-pattern-0)" d="M 5.011719 2.667969 L 27.023438 2.667969 C 27.699219 2.667969 28.25 3.214844 28.25 3.894531 L 28.25 28.105469 C 28.25 28.429688 28.121094 28.742188 27.890625 28.972656 C 27.660156 29.203125 27.347656 29.332031 27.023438 29.332031 L 5.011719 29.332031 C 4.6875 29.332031 4.375 29.203125 4.144531 28.972656 C 3.914062 28.742188 3.785156 28.429688 3.785156 28.105469 L 3.785156 3.894531 C 3.785156 3.570312 3.914062 3.257812 4.144531 3.027344 C 4.375 2.796875 4.6875 2.667969 5.011719 2.667969 Z M 5.011719 2.667969 "/>
<path fill-rule="nonzero" fill="rgb(70.588237%, 92.54902%, 21.176471%)" fill-opacity="1" d="M 10.488281 22.933594 L 9.226562 22.933594 C 9.132812 22.929688 9.042969 22.886719 8.980469 22.816406 C 8.914062 22.746094 8.882812 22.652344 8.890625 22.558594 L 8.890625 7.714844 C 8.882812 7.621094 8.914062 7.53125 8.980469 7.464844 C 9.046875 7.398438 9.132812 7.359375 9.226562 7.359375 L 12.65625 7.359375 C 12.75 7.359375 12.839844 7.398438 12.902344 7.464844 C 12.96875 7.53125 13 7.621094 12.996094 7.714844 C 13 7.808594 12.96875 7.902344 12.902344 7.972656 C 12.839844 8.042969 12.75 8.085938 12.65625 8.089844 L 9.5625 8.089844 L 9.5625 22.1875 L 10.488281 22.1875 C 10.683594 22.199219 10.835938 22.363281 10.828125 22.558594 C 10.828125 22.753906 10.679688 22.914062 10.488281 22.933594 M 10.667969 24.746094 L 7.820312 24.746094 C 7.625 24.734375 7.476562 24.570312 7.484375 24.375 L 7.253906 6.007812 C 7.25 5.910156 7.289062 5.8125 7.359375 5.742188 C 7.414062 5.671875 7.5 5.632812 7.589844 5.636719 L 12.65625 5.636719 L 12.65625 6.363281 L 7.945312 6.363281 L 8.160156 24 L 10.667969 24 Z M 21.332031 23.109375 L 18.507812 23.109375 C 18.410156 23.105469 18.320312 23.0625 18.257812 22.988281 C 18.1875 22.925781 18.148438 22.832031 18.152344 22.738281 L 18.152344 14.042969 C 18.144531 13.949219 18.179688 13.859375 18.242188 13.792969 C 18.304688 13.726562 18.394531 13.6875 18.488281 13.6875 L 20.105469 13.6875 L 20.105469 9.6875 L 20.78125 9.6875 L 20.78125 14.027344 C 20.792969 14.21875 20.648438 14.382812 20.460938 14.398438 L 18.84375 14.398438 L 18.84375 22.257812 L 21.332031 22.257812 Z M 21.332031 23.109375 "/>
<path fill-rule="nonzero" fill="rgb(21.176471%, 33.725491%, 8.235294%)" fill-opacity="1" d="M 13.03125 4.070312 L 23.023438 4.070312 C 23.277344 4.070312 23.484375 4.277344 23.484375 4.535156 L 23.484375 9.136719 C 23.484375 9.390625 23.277344 9.601562 23.023438 9.601562 L 13.03125 9.601562 C 12.773438 9.601562 12.570312 9.390625 12.570312 9.136719 L 12.570312 4.535156 C 12.570312 4.277344 12.777344 4.070312 13.03125 4.070312 Z M 15.734375 19.644531 L 15.734375 27.429688 C 15.734375 27.554688 15.6875 27.671875 15.597656 27.757812 C 15.511719 27.847656 15.394531 27.894531 15.269531 27.894531 L 14.257812 27.894531 C 14.003906 27.894531 13.796875 27.6875 13.796875 27.429688 L 13.796875 19.644531 C 13.796875 19.390625 14.003906 19.183594 14.257812 19.183594 L 15.269531 19.183594 C 15.527344 19.183594 15.734375 19.390625 15.734375 19.644531 Z M 12.425781 19.679688 L 12.425781 27.464844 C 12.425781 27.71875 12.21875 27.929688 11.964844 27.929688 L 10.949219 27.929688 C 10.695312 27.929688 10.488281 27.71875 10.488281 27.464844 L 10.488281 19.679688 C 10.488281 19.558594 10.539062 19.441406 10.625 19.355469 C 10.710938 19.265625 10.828125 19.21875 10.949219 19.21875 L 11.964844 19.21875 C 12.085938 19.21875 12.203125 19.265625 12.289062 19.351562 C 12.375 19.441406 12.425781 19.558594 12.425781 19.679688 Z M 12.425781 19.679688 "/>
<path fill-rule="nonzero" fill="rgb(94.901961%, 94.901961%, 94.901961%)" fill-opacity="1" d="M 23.058594 19.679688 L 23.058594 27.464844 C 23.058594 27.589844 23.011719 27.707031 22.921875 27.792969 C 22.835938 27.882812 22.71875 27.929688 22.59375 27.929688 L 21.582031 27.929688 C 21.328125 27.929688 21.121094 27.71875 21.121094 27.464844 L 21.121094 19.679688 C 21.121094 19.558594 21.167969 19.441406 21.257812 19.355469 C 21.34375 19.265625 21.460938 19.21875 21.582031 19.21875 L 22.59375 19.21875 C 22.851562 19.21875 23.058594 19.425781 23.058594 19.679688 Z M 14.417969 12.335938 C 13.398438 12.335938 12.570312 13.230469 12.570312 14.328125 C 12.570312 15.429688 13.398438 16.320312 14.417969 16.320312 C 15.4375 16.320312 16.265625 15.429688 16.265625 14.328125 C 16.265625 13.230469 15.4375 12.335938 14.417969 12.335938 "/>
<path fill-rule="nonzero" fill="rgb(23.137255%, 23.137255%, 23.137255%)" fill-opacity="1" d="M 3.75 21.777344 L 1.492188 21.777344 C 1.183594 21.78125 0.925781 21.550781 0.890625 21.246094 L 0.890625 10.828125 C 0.890625 10.492188 1.160156 10.222656 1.492188 10.222656 L 3.75 10.222656 Z M 3.75 21.777344 "/>
</svg>

<svg role="img" viewBox="0 0 32 32" xmlns="http://www.w3.org/2000/svg"><defs><linearGradient gradientTransform="rotate(.086)scale(1.77778)" gradientUnits="userSpaceOnUse" id="azure-network-interface_svg__a" x1="9.01" x2="9.01" y1="16.5" y2="1.5"><stop offset="0" stop-color="rgb(36.862746%, 58.823532%, 25.490198%)"/><stop offset=".34" stop-color="rgb(41.960785%, 66.666669%, 25.882354%)"/><stop offset=".67" stop-color="rgb(45.09804%, 71.764708%, 26.274511%)"/><stop offset="1" stop-color="rgb(46.27451%, 73.333335%, 26.274511%)"/></linearGradient></defs><path d="M28.25 5.172h2.258c.332 0 .601.273.601.605V12c0 .332-.27.605-.601.605H28.25Zm0 10.828h2.258c.332 0 .601.27.601.605v10.418c0 .332-.27.602-.601.602H28.25Zm0 0" fill="rgb(100%, 79.215688%, 0%)"/><path d="M5.012 2.668h22.011c.676 0 1.227.547 1.227 1.227v24.21a1.227 1.227 0 0 1-1.227 1.227H5.012a1.227 1.227 0 0 1-1.227-1.227V3.895a1.227 1.227 0 0 1 1.227-1.227m0 0" fill="url(#azure-network-interface_svg__a)"/><path d="M10.488 22.934H9.227a.35.35 0 0 1-.247-.118.33.33 0 0 1-.09-.257V7.715a.31.31 0 0 1 .09-.25.35.35 0 0 1 .247-.106h3.43a.34.34 0 0 1 .34.356.35.35 0 0 1-.095.258.35.35 0 0 1-.246.117H9.562v14.098h.926a.36.36 0 0 1 .34.37.377.377 0 0 1-.34.376m.18 1.812H7.82a.356.356 0 0 1-.336-.371l-.23-18.367a.36.36 0 0 1 .105-.266.27.27 0 0 1 .23-.105h5.067v.726h-4.71L8.16 24h2.508Zm10.664-1.637h-2.824a.34.34 0 0 1-.25-.12.32.32 0 0 1-.106-.25v-8.696a.33.33 0 0 1 .09-.25.34.34 0 0 1 .246-.105h1.617v-4h.676v4.34a.35.35 0 0 1-.32.37h-1.617v7.86h2.488Zm0 0" fill="rgb(70.588237%, 92.54902%, 21.176471%)"/><path d="M13.031 4.07h9.992c.254 0 .461.207.461.465v4.602a.465.465 0 0 1-.46.465H13.03a.463.463 0 0 1-.46-.465V4.535c0-.258.206-.465.46-.465m2.703 15.575v7.785a.45.45 0 0 1-.136.328.45.45 0 0 1-.328.137h-1.012a.463.463 0 0 1-.461-.465v-7.785c0-.254.207-.461.46-.461h1.013c.257 0 .464.207.464.46m-3.308.035v7.785a.465.465 0 0 1-.461.465h-1.016a.465.465 0 0 1-.46-.465V19.68c0-.121.05-.239.136-.325a.45.45 0 0 1 .324-.136h1.016a.46.46 0 0 1 .46.46m0 0" fill="rgb(21.176471%, 33.725491%, 8.235294%)"/><path d="M23.059 19.68v7.785a.45.45 0 0 1-.137.328.45.45 0 0 1-.328.137h-1.012a.465.465 0 0 1-.46-.465V19.68c0-.121.046-.239.136-.325a.45.45 0 0 1 .324-.136h1.012c.258 0 .465.207.465.46m-8.641-7.344c-1.02 0-1.848.894-1.848 1.992 0 1.102.828 1.992 1.848 1.992s1.848-.89 1.848-1.992c0-1.098-.828-1.992-1.848-1.992" fill="rgb(94.901961%, 94.901961%, 94.901961%)"/><path d="M3.75 21.777H1.492a.6.6 0 0 1-.601-.53v-10.42c0-.336.27-.605.601-.605H3.75Zm0 0" fill="rgb(23.137255%, 23.137255%, 23.137255%)"/></svg>
